packages/astro-components-stencil/src/icons/local-mall.svg

<svg xmlns="http://www.w3.org/2000/svg" viewBox="0 0 24 24"><g xmlns="http://www.w3.org/2000/svg" id="local-mall" fill-rule="nonzero">
            <path d="M19 6h-2c0-2.76-2.24-5-5-5S7 3.24 7 6H5c-1.1 0-2 .9-2 2v12c0 1.1.9 2 2 2h14c1.1 0 2-.9 2-2V8c0-1.1-.9-2-2-2zm-7-3c1.66 0 3 1.34 3 3H9c0-1.66 1.34-3 3-3zm0 10a4.99 4.99 0 01-4.84-3.75C6.99 8.62 7.48 8 8.13 8c.47 0 .85.34.98.8a2.997 2.997 0 005.78 0c.13-.46.51-.8.98-.8.65 0 1.13.62.97 1.25A4.99 4.99 0 0112 13z"/>
        </g></svg>

<svg width="24" height="24" viewBox="0 0 24 24" fill="none" xmlns="http://www.w3.org/2000/svg">
<path fill-rule="evenodd" clip-rule="evenodd" d="M19 6H17C17 3.24 14.76 1 12 1C9.24 1 7 3.24 7 6H5C3.9 6 3 6.9 3 8V20C3 21.1 3.9 22 5 22H19C20.1 22 21 21.1 21 20V8C21 6.9 20.1 6 19 6ZM12 3C13.66 3 15 4.34 15 6H9C9 4.34 10.34 3 12 3ZM7.16 9.25C7.71 11.41 9.67 13 12 13C14.33 13 16.29 11.41 16.84 9.25C17 8.62 16.52 8 15.87 8C15.4 8 15.02 8.34 14.89 8.8C14.54 10.07 13.38 11 12 11C10.62 11 9.46 10.07 9.11 8.8C8.98 8.34 8.6 8 8.13 8C7.48 8 6.99 8.62 7.16 9.25Z" fill="black"/>
</svg>
